X:1
T:Salinas, 86.86.86
T:Salinas, 86.86.86
T:Ada Rose Gibbs (1864-1905)
T:Public Domain Courtesy of the Cyber Hymnal™
C:Ada Rose Gibbs (1864-1905)
Z:Public Domain
Z:Courtesy of the Cyber Hymnal™
%%score ( 1 2 ) ( 3 4 )
L:1/8
Q:1/4=102
M:6/8
K:Ab
V:1 treble 
V:2 treble 
V:3 bass 
V:4 bass 
V:1
 [Ac] | [Ad]2 [Ac] [AB]2 [Ad] | [Ac]2 [GB] A2 [Ac] | [FB]2 F [EA]2 [EG] | [EA]3- [EA]2 [EA] | %5
 [E=A]2 [EF] [Dd]2 [Ec] | [DB]2 [E=A] [EB]2 [FB] | [F=B]2 [FG] [F=A]2 [FB] | [Ec]3- [Ec]2 [Ec] | %9
 [GB]2 [EG] [EA]2 [Ac] | [Fd]2 [Gd] [Ac]2 [Ac] | [Gc]2 [Gc] [FB]2 [GB] | (A3- A2) |] %13
V:2
 x | x6 | x3 A2 x | x2 F x3 | x6 | x6 | x6 | x6 | x6 | x6 | x6 | x6 | A3- A2 |] %13
V:3
 [A,E] | [A,F]2 [A,E] [A,D]2 [A,F] | [A,E]2 [A,D] [A,C]2 [A,E] | [D,D]2 [D,D] [E,C]2 [E,B,] | %4
 [A,C]3- [A,C]2 [A,C] | [F,C]2 [F,C] [F,B,]2 [F,=A,] | B,2 [B,C] [B,D]2 [B,D] | %7
 [G,=D]2 [G,=B,] [G,C]2 [G,D] | [C,C]3- [C,C]2 [C,C] | [D,E]2 [D,B,] [C,C]2 [C,E] | %10
 [B,,D]2 [B,,D] [A,,E]2 [A,,E] | [C,=E]2 [C,E] [D,F]2 [=E,D] | [A,C]3- [A,C]2 |] %13
V:4
 x | x6 | x6 | x6 | x6 | x6 | B,2 x4 | x6 | x6 | x6 | x6 | x6 | x5 |] %13

